!!!!SEGMENT: pl-sa--552-a-ix-32--002_anonim--polonez.krn
!!!cenid: 18xx:513
!!!COM: Anonim
!!!COM-rismID: pe30004985
!!!CDT:
!!!CNT:
!!!OTL: Polonez
!!!PDT:
!!!AGN: Secular; Polonaise
!!!SMS-siglum: PL-SA
!!!SMS-shelfmark: 552/A IX 32
!!!SMS-shelfwork: 002 W
!!!SMS-variant:
!!!SMS-altvar:
!!!NIFC-rismSourceID: 1001069489
!!!NIFC-islandoraID:
!!!URL-pdf-islandora:
!!!URL-scan: https://bc.bdsandomierz.pl/dlibra/publication/1308/edition/1276/content @EN{Scan on Cyfrowa Biblioteka Diecezjalna w Sandomierzu} @PL{Skany w portalu Cyfrowa Biblioteka Diecezjalna w Sandomierzu}
!!!ONB-nifc: Str. 1 (s. 4) – str. 2 (s. 1)
!!!AIN: 2 empty
!!!key:
**kern	**kern
*part2	*part1
*staff2	*staff1
*Iempty	*Iempty
*I"	*I"
*I'keyb	*I'keyb
*clefF4	*clefG2
*k[b-]	*k[b-]
*F:	*F:
*M3/4	*M3/4
=1	=1
!	!LO:TX:a:i:t=Polon&colon;
!	!LO:TX:a:t=P:problem=napis przed akoladą
.	8qaa/
*tremolo	*
8F\ 8AL	16gg\LL
.	16ff\J
8c\	8.ee\J
8F\ 8A	.
.	16aa\LL
8c\	16gg\
.	16ff\JJ
8F\ 8A	16ee\LL
.	16ff\
8c\J	16gg\
.	16ee\JJ
=2	=2
*2\right	*
!LO:TX:a:t=P:problem=2\right&colon; global	!
.	8qee/
8F\ 8B-L	16dd\LL
.	16cc#X\
8d\	16dd\
.	16ee\JJ
.	8qgg/
8F\ 8B-	16ff\LL
.	16ee\
8d\	16ff\
.	16dd\JJ
8F\ 8B-	8a/L 8cc#
8d\J	8f/J 8a
=3	=3
!LO:N:vis=2.	!
8E\ 8G 8B-L	16f/LL 16a
.	16e/JJ 16g
8c\	4e/ 4g
8E\ 8G 8B-	.
8c\J	8gg\ 8bb-
8F\L 8A	8ff\L 8aa
8c\J	8a\J 8ff
=4	=4
.	8qee/
2.ryy	16dd\LL
.	16cc#X\
.	16dd\
.	16ee\JJ
.	8qgg/
.	16ff\LL
.	16ee\
.	16ff\
.	16dd\JJ
.	8a/L 8cc#
.	8f/J 8a
=5	=5
2.ryy	16f/LL 16a
.	16e/JJ 16g
.	4e/ 4g
.	8gg\ 8bb-
.	8ff\L 8aa
.	8a\J 8ff
=6	=6
.	8qaa/
8E\ 8G 8B-L	16gg\LL
.	16ff#X\
8c\	16gg\
.	16aa\JJ
8E\ 8G 8B-	16bb-\LL
.	16aa\
8c\J	16bb-\
.	16gg\JJ
!	!LO:SIC:s==16ffn
4ryy	16ff#\LL
.	16een\
.	16dd\
.	16cc\JJ
=7	=7
16F\LL	16a\LL
16c\	16aa\
16A\	16gg\
16c\JJ	16ff\JJ
*rep	*
16F\LL	16ee\LL
16c\	16ff\
16A\	16gg\
16c\JJ	16ff\JJ
*Xrep	*
*rep	*
16F\LL	16ee\LL
16c\	16ff\J
!	!LO:TX:a:t=P:problem=pierwsze 5 nut jako custos
16A\	8cc\J
16c\JJ	.
*Xrep	*
!!LO:LB:g=original
=8	=8
.	8qee/
16F\LL	16dd\LL
16d\	16cc#X\
16B-\	16dd\
16d\JJ	16ee\JJ
*rep	*
.	8qgg/
16F\LL	16ff\LL
16d\	16ee\
16B-\	16ff\
16d\JJ	16dd\JJ
*Xrep	*
16F\LL	8ccn\L
16c\	.
16A\	8aa\J
16c\JJ	.
=9	=9
16C\LL	16aa\LL
16c\	16gg\JJ
16E\	4gg\
16c\JJ	.
16G\LL	.
16c\	.
16E\	16aa\LL
16c\JJ	16bb-\JJ
16F\LL	8aa\L
16c\	.
16A\	8ff\J
16c\JJ	.
=10	=10
.	8qaa/
16C\LL	16gg\LL
16c\	16ff#X\
16F\	16gg\
16c\JJ	16aa\JJ
16E\LL 16G	16bb-\LL
16c\	16aa\
16E\	16bb-\
16c\JJ	16gg\JJ
16F\LL	8aa\L
16c\	.
16A\	8ffn\J
16c\JJ	.
=11	=11
.	8qaa/
16C\LL	16gg\LL
16c\	16ff#X\
16E\	16gg\
16c\JJ	16aa\JJ
16G\LL	16bb-\LL
16c\	16aa\
16E\	16bb-\
16c\JJ	16ddd\JJ
16C\LL	16ccc\LL
16c\	16bb-\
16E\	16aa\
16c\JJ	16gg\JJ
=12	=12
8F\L 8A	16ffn\LL
.	16cc\J
8c\J	8aa\J
.	8qaa/
8E\L 8G 8B-	16gg\LL
.	16ff\
8c\J	16gg\
.	16aa\JJ
.	8qgg/
4F\ 4A	4ff\
=13:|!|:	=13:|!|:
*2\right	*
8E\ 8G 8B-L	16ff#X\LL
.	16gg\
8c\	16aa\
.	16gg\JJ
*	*rep
8E\ 8G 8B-	16ff#\LL
.	16gg\
8c\	16aa\
.	16gg\JJ
*	*Xrep
.	8qcc/
8E\ 8G 8B-	8.ccc\L
8c\J	.
.	16bb-\Jk
=14	=14
8F\ 8AL	16gg#X\LL
.	16aa\
8c\	16gg#\
.	16aa\JJ
8F\ 8A	4.ff\
8c\	.
8F\ 8A	.
8c\J	8aa\
!!LO:LB:g=original
=15	=15
8E\ 8G 8B-L	16ff#X\LL
.	16gg\
8c\	16aa\
.	16gg\JJ
8E\ 8G 8B-	8ccc\L
8c\	8bbn\
8E\ 8G 8B-	8ccc-X\
8c\J	8bb-X\J
=16	=16
8F\ 8A	8aa\
4AA\ 4A	4ccc\
8BB-/ 8B-	8bb-\
!	!LO:TX:i:b:t=Polo&colon; Da. Ca&colon;
!	!LO:TX:a:t=P:problem=napis za podwójną kreską taktową
4C\ 4c	4ff\
=17||	=17||
*clefF4	*clefG2
*k[b-e-]	*k[b-e-]
*B-:	*B-:
*2\right	*
!	!LO:TX:a:t=P:problem=nowa klamra przed kluczami
!	!LO:TX:a:t=P:problem=klucze przed znakami
!LO:TX:a:t=P:problem=kolejność znaków&colon; E-, BB-	!LO:TX:a:t=P:problem=kolejność znaków&colon; ee-, b-
8B-\ 8dL	16b-\LL
.	16cc\
8f\	16dd\
.	16ee-\JJ
8B-\ 8d	16ff\LL
.	16gg\
8f\	16aa\
.	16bb-\JJ
8B-\ 8d	8aa\L
8f\J	8gg\J
=18	=18
8A\ 8c 8e-L	16ee-\LL
.	16ff\
8f\	16gg\
.	16ff\JJ
8A\ 8c 8e-	4.cc\
8f\	.
8A\ 8c 8e-	.
8f\J	8ff\
=19	=19
8B-\ 8dL	16een\LL
.	16ff\
8f\	16gg\
.	16ff\JJ
8B-\ 8d	16ee\LL
.	16ff\
8f\	16gg\
.	16aa\JJ
8B-\ 8d	16bb-\LL
.	16aa\
8f\J	16gg\
.	16ff\JJ
=20	=20
8F\ 8A 8cL	16een\LL
.	16ff\
8f\	16gg\
.	16ff\JJ
8F\ 8A 8c	4.cc\
8f\	.
8F\ 8A 8c	.
8f\J	8ff\
=21	=21
8B-\ 8dL	16b-\LL
.	16cc\
8f\	16dd\
.	16ee-\JJ
8B-\ 8d	16ff\LL
.	16gg\
8f\	16aa\
.	16bb-\JJ
8B-\ 8d	4b-X\
8f\J	.
!!LO:PB:g=original
=22:|!|:	=22:|!|:
16F\LL	16ff\LL
16f\	16aa\JJ
16A\	4ccc\
16f\JJ	.
16c\LL	.
16f\	.
16A\	16bb-\LL
16f\JJ	16aa\JJ
16F\LL	16gg\LL
16f\	16ff\
16A\	16een\
16f\JJ	16ff\JJ
=23	=23
16F\LL	8bb-\L
!LO:TX:a:t=f	!
16f\	.
16A\	16ccc#X\L
16f\JJ	16ddd\JJ
16d\LL	4.bb-\
16f\	.
16B-\	.
16f\JJ	.
16F\LL	.
16f\	.
16B-\	8ddd\
16f\JJ	.
=24	=24
16F\LL	16ddd\LL
16f\	16ccc\
16A\	16bb-\
16f\JJ	16ccc\JJ
16c\LL	16bb-\LL
16f\	16ccc\
16A\	16ddd\
16f\JJ	16ccc\JJ
16F\LL	16bb-X\LL
16f\	16aa\
16A\	16gg\
16f\JJ	16ff\JJ
=25	=25
8B-\L 8d	8bb-\L
8f\J	16ccc#X\L
.	16ddd\JJ
*rep	*rep
8B-\L 8d	8bb-\L
8f\J	16ccc#X\L
.	16ddd\JJ
*Xrep	*Xrep
!	!LO:TX:a:t=P:problem=brak kreski końcowej
.	8qaa/
4B-\ 4d	4bb-\
!	!LO:TX:b:i:t=Trio Da Capo
=-	=-
*-	*-
!!!system-decoration: [(s1,s2)]
!!!RDF**kern: > = above
!!!RDF**kern: < = below
!!!EED: Mateusz Mrugas
!!!EEV: 2020-12-11
!!!ENC: Marta Chmielewska
!!!END: 2020-06-17
